X: 17513
T: Hills Of Kaitoke, The
R: reel
M: 4/4
K: Dmajor
Ade|:"D"ef2f- fgfA|"Em"AB2B- BAef|"G"gfed "C"ABdf|"A"de2e- eAde|
"D"ef2f- fgfA|"G"AB2B- BAFD|"Em"BDEF "C"GABd|1 "D"edfd "A"eAde:|2 "D"edfd "A"edef||
|:"C"gf A2 - Agfe|"D"fedA - Afed|"A"edAe "Em"dABd|"Asus4"edfd "A"edef|
"C"gfA2- Agfe|"D"fedA- AGFD|"Em"BDEF "C"GABd|1 "D"edfd "A"edef:|2 "D"edfd "A"e||

